flaticon/weather/moon-3.svg

<svg xmlns="http://www.w3.org/2000/svg" width="32" height="32" viewBox="0 0 24 24">
    <path d="M 24 12 C 24 5.523438 18.839844 0.230469 12.414062 0.0117188 L 12.414062 0 L 12 0 C 5.382812 0 0 5.382812 0 12 C 0 18.617188 5.382812 24 12 24 L 12.414062 24 L 12.414062 23.988281 C 18.839844 23.769531 24 18.476562 24 12 Z M 0.84375 11.433594 C 0.84375 11.371094 0.851562 11.3125 0.855469 11.25 C 0.863281 11.125 0.871094 10.996094 0.882812 10.871094 C 0.890625 10.796875 0.902344 10.726562 0.910156 10.652344 C 0.925781 10.539062 0.9375 10.429688 0.953125 10.320312 C 0.964844 10.242188 0.980469 10.164062 0.996094 10.089844 C 1.011719 9.984375 1.03125 9.878906 1.050781 9.773438 C 1.066406 9.695312 1.085938 9.621094 1.105469 9.542969 C 1.125 9.441406 1.148438 9.339844 1.171875 9.238281 C 1.195312 9.164062 1.214844 9.085938 1.238281 9.007812 C 1.265625 8.910156 1.292969 8.8125 1.320312 8.714844 C 1.34375 8.636719 1.371094 8.5625 1.398438 8.488281 C 1.429688 8.390625 1.460938 8.296875 1.492188 8.203125 C 1.523438 8.125 1.550781 8.050781 1.582031 7.976562 C 1.617188 7.882812 1.652344 7.789062 1.691406 7.699219 C 1.722656 7.625 1.753906 7.550781 1.789062 7.476562 C 1.828125 7.386719 1.867188 7.296875 1.910156 7.207031 C 1.945312 7.136719 1.980469 7.0625 2.019531 6.992188 C 2.0625 6.90625 2.105469 6.816406 2.152344 6.730469 C 2.191406 6.660156 2.230469 6.589844 2.269531 6.519531 C 2.316406 6.433594 2.367188 6.347656 2.417969 6.265625 C 2.457031 6.195312 2.5 6.128906 2.542969 6.0625 C 2.59375 5.980469 2.648438 5.898438 2.703125 5.816406 C 2.746094 5.746094 2.792969 5.683594 2.839844 5.617188 C 2.894531 5.535156 2.949219 5.457031 3.007812 5.378906 C 3.054688 5.3125 3.105469 5.25 3.15625 5.1875 C 3.214844 5.109375 3.273438 5.035156 3.332031 4.957031 C 3.382812 4.894531 3.4375 4.835938 3.488281 4.773438 C 3.550781 4.699219 3.613281 4.625 3.679688 4.554688 C 3.730469 4.496094 3.785156 4.4375 3.839844 4.378906 C 3.90625 4.308594 3.972656 4.238281 4.042969 4.167969 C 4.097656 4.109375 4.15625 4.054688 4.214844 4 C 4.28125 3.929688 4.351562 3.863281 4.421875 3.796875 C 4.480469 3.742188 4.542969 3.691406 4.601562 3.636719 C 4.675781 3.574219 4.746094 3.507812 4.820312 3.449219 C 4.882812 3.394531 4.945312 3.34375 5.011719 3.292969 C 5.082031 3.234375 5.160156 3.171875 5.234375 3.117188 C 5.300781 3.066406 5.367188 3.015625 5.433594 2.96875 C 5.507812 2.914062 5.585938 2.859375 5.664062 2.804688 C 5.734375 2.757812 5.800781 2.710938 5.871094 2.664062 C 5.949219 2.613281 6.027344 2.5625 6.109375 2.511719 C 6.179688 2.46875 6.25 2.425781 6.324219 2.382812 C 6.402344 2.335938 6.484375 2.285156 6.570312 2.242188 C 6.640625 2.199219 6.714844 2.160156 6.789062 2.121094 C 6.871094 2.078125 6.957031 2.035156 7.042969 1.992188 C 7.117188 1.953125 7.191406 1.917969 7.269531 1.878906 C 7.355469 1.839844 7.441406 1.800781 7.527344 1.765625 C 7.605469 1.730469 7.683594 1.695312 7.761719 1.664062 C 7.847656 1.628906 7.9375 1.59375 8.023438 1.558594 C 8.105469 1.53125 8.1875 1.5 8.265625 1.46875 C 8.355469 1.4375 8.445312 1.410156 8.535156 1.378906 C 8.617188 1.351562 8.699219 1.324219 8.78125 1.300781 C 8.871094 1.273438 8.964844 1.25 9.054688 1.222656 C 9.136719 1.199219 9.222656 1.175781 9.308594 1.15625 C 9.402344 1.132812 9.492188 1.113281 9.582031 1.09375 C 9.671875 1.074219 9.757812 1.054688 9.847656 1.035156 C 9.9375 1.019531 10.03125 1.003906 10.121094 0.988281 C 10.210938 0.972656 10.300781 0.957031 10.390625 0.945312 C 10.484375 0.929688 10.578125 0.917969 10.671875 0.910156 C 10.761719 0.898438 10.851562 0.886719 10.945312 0.878906 C 11.039062 0.867188 11.132812 0.863281 11.226562 0.855469 C 11.320312 0.851562 11.414062 0.84375 11.507812 0.839844 C 11.535156 0.835938 11.558594 0.835938 11.585938 0.835938 L 11.585938 23.160156 C 11.558594 23.160156 11.535156 23.160156 11.507812 23.160156 C 11.414062 23.152344 11.320312 23.148438 11.226562 23.140625 C 11.132812 23.132812 11.039062 23.128906 10.945312 23.121094 C 10.851562 23.109375 10.761719 23.097656 10.671875 23.089844 C 10.578125 23.078125 10.484375 23.066406 10.390625 23.054688 C 10.300781 23.039062 10.210938 23.023438 10.121094 23.011719 C 10.03125 22.992188 9.9375 22.976562 9.847656 22.960938 C 9.757812 22.941406 9.671875 22.921875 9.582031 22.902344 C 9.492188 22.882812 9.398438 22.863281 9.308594 22.839844 C 9.222656 22.820312 9.136719 22.796875 9.054688 22.773438 C 8.964844 22.75 8.871094 22.722656 8.78125 22.695312 C 8.699219 22.671875 8.617188 22.644531 8.535156 22.617188 C 8.445312 22.589844 8.355469 22.558594 8.265625 22.527344 C 8.1875 22.496094 8.105469 22.46875 8.023438 22.4375 C 7.9375 22.402344 7.847656 22.367188 7.761719 22.332031 C 7.683594 22.300781 7.605469 22.265625 7.527344 22.234375 C 7.441406 22.195312 7.355469 22.15625 7.269531 22.117188 C 7.195312 22.082031 7.117188 22.042969 7.042969 22.007812 C 6.957031 21.964844 6.871094 21.921875 6.789062 21.875 C 6.714844 21.835938 6.640625 21.796875 6.570312 21.757812 C 6.484375 21.710938 6.402344 21.664062 6.324219 21.613281 C 6.25 21.574219 6.179688 21.527344 6.109375 21.484375 C 6.03125 21.433594 5.949219 21.382812 5.871094 21.332031 C 5.800781 21.285156 5.734375 21.242188 5.664062 21.195312 C 5.585938 21.140625 5.507812 21.085938 5.433594 21.027344 C 5.367188 20.980469 5.300781 20.929688 5.234375 20.882812 C 5.160156 20.824219 5.082031 20.765625 5.011719 20.703125 C 4.945312 20.652344 4.882812 20.601562 4.820312 20.550781 C 4.746094 20.488281 4.675781 20.425781 4.601562 20.359375 C 4.542969 20.308594 4.480469 20.253906 4.421875 20.199219 C 4.351562 20.132812 4.28125 20.066406 4.214844 20 C 4.15625 19.941406 4.097656 19.886719 4.042969 19.828125 C 3.972656 19.761719 3.90625 19.691406 3.839844 19.621094 C 3.785156 19.5625 3.730469 19.503906 3.679688 19.441406 C 3.613281 19.371094 3.550781 19.296875 3.488281 19.222656 C 3.4375 19.160156 3.382812 19.101562 3.332031 19.039062 C 3.273438 18.964844 3.214844 18.886719 3.15625 18.8125 C 3.105469 18.75 3.054688 18.683594 3.007812 18.621094 C 2.949219 18.542969 2.894531 18.464844 2.839844 18.382812 C 2.792969 18.316406 2.746094 18.253906 2.703125 18.183594 C 2.648438 18.105469 2.59375 18.019531 2.542969 17.9375 C 2.5 17.871094 2.457031 17.804688 2.417969 17.734375 C 2.367188 17.652344 2.316406 17.566406 2.269531 17.480469 C 2.230469 17.410156 2.191406 17.339844 2.152344 17.269531 C 2.105469 17.183594 2.0625 17.097656 2.019531 17.007812 C 1.980469 16.9375 1.945312 16.863281 1.910156 16.792969 C 1.867188 16.703125 1.828125 16.613281 1.789062 16.523438 C 1.753906 16.449219 1.722656 16.375 1.691406 16.300781 C 1.652344 16.210938 1.617188 16.117188 1.582031 16.023438 C 1.550781 15.949219 1.519531 15.875 1.492188 15.796875 C 1.460938 15.703125 1.429688 15.609375 1.398438 15.511719 C 1.371094 15.4375 1.34375 15.363281 1.320312 15.285156 C 1.292969 15.1875 1.265625 15.089844 1.238281 14.992188 C 1.214844 14.914062 1.195312 14.835938 1.171875 14.761719 C 1.148438 14.660156 1.125 14.558594 1.105469 14.457031 C 1.085938 14.378906 1.066406 14.304688 1.050781 14.226562 C 1.03125 14.121094 1.011719 14.015625 0.996094 13.910156 C 0.980469 13.835938 0.964844 13.757812 0.953125 13.679688 C 0.9375 13.570312 0.925781 13.460938 0.910156 13.347656 C 0.902344 13.273438 0.890625 13.203125 0.882812 13.128906 C 0.871094 13.003906 0.863281 12.875 0.855469 12.75 C 0.851562 12.6875 0.84375 12.628906 0.84375 12.566406 C 0.832031 12.378906 0.828125 12.191406 0.828125 12 C 0.828125 11.808594 0.832031 11.621094 0.84375 11.433594 Z M 16.132812 22.378906 C 16.132812 22.367188 16.136719 22.355469 16.136719 22.34375 C 16.136719 22.117188 15.953125 21.929688 15.722656 21.929688 C 15.496094 21.929688 15.308594 22.117188 15.308594 22.34375 C 15.308594 22.457031 15.355469 22.558594 15.429688 22.632812 C 14.472656 22.941406 13.460938 23.125 12.414062 23.160156 L 12.414062 22.757812 C 12.640625 22.757812 12.828125 22.574219 12.828125 22.34375 C 12.828125 22.117188 12.640625 21.929688 12.414062 21.929688 L 12.414062 19.449219 C 12.640625 19.449219 12.828125 19.261719 12.828125 19.035156 C 12.828125 18.804688 12.640625 18.621094 12.414062 18.621094 L 12.414062 16.136719 C 12.640625 16.136719 12.828125 15.953125 12.828125 15.722656 C 12.828125 15.496094 12.640625 15.308594 12.414062 15.308594 L 12.414062 12.828125 C 12.640625 12.828125 12.828125 12.640625 12.828125 12.414062 C 12.828125 12.183594 12.640625 12 12.414062 12 L 12.414062 9.515625 C 12.640625 9.515625 12.828125 9.332031 12.828125 9.101562 C 12.828125 8.875 12.640625 8.691406 12.414062 8.691406 L 12.414062 6.207031 C 12.640625 6.207031 12.828125 6.023438 12.828125 5.792969 C 12.828125 5.566406 12.640625 5.378906 12.414062 5.378906 L 12.414062 2.898438 C 12.640625 2.898438 12.828125 2.710938 12.828125 2.484375 C 12.828125 2.253906 12.640625 2.070312 12.414062 2.070312 L 12.414062 0.839844 C 12.84375 0.855469 13.265625 0.890625 13.679688 0.953125 C 13.734375 1.121094 13.886719 1.242188 14.070312 1.242188 C 14.199219 1.242188 14.308594 1.179688 14.382812 1.085938 C 19.402344 2.183594 23.171875 6.65625 23.171875 12 C 23.171875 13.195312 22.980469 14.347656 22.632812 15.429688 C 22.558594 15.355469 22.457031 15.308594 22.34375 15.308594 C 22.117188 15.308594 21.929688 15.496094 21.929688 15.722656 C 21.929688 15.953125 22.117188 16.136719 22.34375 16.136719 C 22.355469 16.136719 22.367188 16.132812 22.378906 16.132812 C 21.242188 18.972656 18.972656 21.242188 16.132812 22.378906 Z M 16.132812 22.378906"/>
    <path d="M14.484375 4.136719C14.484375 4.367188 14.296875 4.550781 14.070312 4.550781 13.839844 4.550781 13.65625 4.367188 13.65625 4.136719 13.65625 3.910156 13.839844 3.722656 14.070312 3.722656 14.296875 3.722656 14.484375 3.910156 14.484375 4.136719zM17.792969 4.136719C17.792969 4.367188 17.609375 4.550781 17.378906 4.550781 17.152344 4.550781 16.964844 4.367188 16.964844 4.136719 16.964844 3.910156 17.152344 3.722656 17.378906 3.722656 17.609375 3.722656 17.792969 3.910156 17.792969 4.136719zM16.136719 5.792969C16.136719 6.023438 15.953125 6.207031 15.722656 6.207031 15.496094 6.207031 15.308594 6.023438 15.308594 5.792969 15.308594 5.566406 15.496094 5.378906 15.722656 5.378906 15.953125 5.378906 16.136719 5.566406 16.136719 5.792969zM16.136719 2.484375C16.136719 2.710938 15.953125 2.898438 15.722656 2.898438 15.496094 2.898438 15.308594 2.710938 15.308594 2.484375 15.308594 2.253906 15.496094 2.070312 15.722656 2.070312 15.953125 2.070312 16.136719 2.253906 16.136719 2.484375zM14.484375 7.449219C14.484375 7.675781 14.296875 7.863281 14.070312 7.863281 13.839844 7.863281 13.65625 7.675781 13.65625 7.449219 13.65625 7.21875 13.839844 7.035156 14.070312 7.035156 14.296875 7.035156 14.484375 7.21875 14.484375 7.449219zM17.792969 7.449219C17.792969 7.675781 17.609375 7.863281 17.378906 7.863281 17.152344 7.863281 16.964844 7.675781 16.964844 7.449219 16.964844 7.21875 17.152344 7.035156 17.378906 7.035156 17.609375 7.035156 17.792969 7.21875 17.792969 7.449219zM16.136719 9.101562C16.136719 9.332031 15.953125 9.515625 15.722656 9.515625 15.496094 9.515625 15.308594 9.332031 15.308594 9.101562 15.308594 8.875 15.496094 8.691406 15.722656 8.691406 15.953125 8.691406 16.136719 8.875 16.136719 9.101562zM14.484375 10.757812C14.484375 10.988281 14.296875 11.171875 14.070312 11.171875 13.839844 11.171875 13.65625 10.988281 13.65625 10.757812 13.65625 10.53125 13.839844 10.34375 14.070312 10.34375 14.296875 10.34375 14.484375 10.53125 14.484375 10.757812zM17.792969 10.757812C17.792969 10.988281 17.609375 11.171875 17.378906 11.171875 17.152344 11.171875 16.964844 10.988281 16.964844 10.757812 16.964844 10.53125 17.152344 10.34375 17.378906 10.34375 17.609375 10.34375 17.792969 10.53125 17.792969 10.757812zM16.136719 12.414062C16.136719 12.640625 15.953125 12.828125 15.722656 12.828125 15.496094 12.828125 15.308594 12.640625 15.308594 12.414062 15.308594 12.183594 15.496094 12 15.722656 12 15.953125 12 16.136719 12.183594 16.136719 12.414062zM14.484375 14.070312C14.484375 14.296875 14.296875 14.484375 14.070312 14.484375 13.839844 14.484375 13.65625 14.296875 13.65625 14.070312 13.65625 13.839844 13.839844 13.65625 14.070312 13.65625 14.296875 13.65625 14.484375 13.839844 14.484375 14.070312zM17.792969 14.070312C17.792969 14.296875 17.609375 14.484375 17.378906 14.484375 17.152344 14.484375 16.964844 14.296875 16.964844 14.070312 16.964844 13.839844 17.152344 13.65625 17.378906 13.65625 17.609375 13.65625 17.792969 13.839844 17.792969 14.070312zM16.136719 15.722656C16.136719 15.953125 15.953125 16.136719 15.722656 16.136719 15.496094 16.136719 15.308594 15.953125 15.308594 15.722656 15.308594 15.496094 15.496094 15.308594 15.722656 15.308594 15.953125 15.308594 16.136719 15.496094 16.136719 15.722656zM14.484375 17.378906C14.484375 17.609375 14.296875 17.792969 14.070312 17.792969 13.839844 17.792969 13.65625 17.609375 13.65625 17.378906 13.65625 17.152344 13.839844 16.964844 14.070312 16.964844 14.296875 16.964844 14.484375 17.152344 14.484375 17.378906zM17.792969 17.378906C17.792969 17.609375 17.609375 17.792969 17.378906 17.792969 17.152344 17.792969 16.964844 17.609375 16.964844 17.378906 16.964844 17.152344 17.152344 16.964844 17.378906 16.964844 17.609375 16.964844 17.792969 17.152344 17.792969 17.378906zM16.136719 19.035156C16.136719 19.261719 15.953125 19.449219 15.722656 19.449219 15.496094 19.449219 15.308594 19.261719 15.308594 19.035156 15.308594 18.804688 15.496094 18.621094 15.722656 18.621094 15.953125 18.621094 16.136719 18.804688 16.136719 19.035156zM14.484375 20.691406C14.484375 20.917969 14.296875 21.101562 14.070312 21.101562 13.839844 21.101562 13.65625 20.917969 13.65625 20.691406 13.65625 20.460938 13.839844 20.277344 14.070312 20.277344 14.296875 20.277344 14.484375 20.460938 14.484375 20.691406zM17.792969 20.691406C17.792969 20.917969 17.609375 21.101562 17.378906 21.101562 17.152344 21.101562 16.964844 20.917969 16.964844 20.691406 16.964844 20.460938 17.152344 20.277344 17.378906 20.277344 17.609375 20.277344 17.792969 20.460938 17.792969 20.691406zM19.449219 5.792969C19.449219 6.023438 19.261719 6.207031 19.035156 6.207031 18.804688 6.207031 18.621094 6.023438 18.621094 5.792969 18.621094 5.566406 18.804688 5.378906 19.035156 5.378906 19.261719 5.378906 19.449219 5.566406 19.449219 5.792969zM21.101562 7.449219C21.101562 7.675781 20.917969 7.863281 20.691406 7.863281 20.460938 7.863281 20.277344 7.675781 20.277344 7.449219 20.277344 7.21875 20.460938 7.035156 20.691406 7.035156 20.917969 7.035156 21.101562 7.21875 21.101562 7.449219zM19.449219 9.101562C19.449219 9.332031 19.261719 9.515625 19.035156 9.515625 18.804688 9.515625 18.621094 9.332031 18.621094 9.101562 18.621094 8.875 18.804688 8.691406 19.035156 8.691406 19.261719 8.691406 19.449219 8.875 19.449219 9.101562zM22.757812 9.101562C22.757812 9.332031 22.574219 9.515625 22.34375 9.515625 22.117188 9.515625 21.929688 9.332031 21.929688 9.101562 21.929688 8.875 22.117188 8.691406 22.34375 8.691406 22.574219 8.691406 22.757812 8.875 22.757812 9.101562zM21.101562 10.757812C21.101562 10.988281 20.917969 11.171875 20.691406 11.171875 20.460938 11.171875 20.277344 10.988281 20.277344 10.757812 20.277344 10.53125 20.460938 10.34375 20.691406 10.34375 20.917969 10.34375 21.101562 10.53125 21.101562 10.757812zM19.449219 12.414062C19.449219 12.640625 19.261719 12.828125 19.035156 12.828125 18.804688 12.828125 18.621094 12.640625 18.621094 12.414062 18.621094 12.183594 18.804688 12 19.035156 12 19.261719 12 19.449219 12.183594 19.449219 12.414062zM22.757812 12.414062C22.757812 12.640625 22.574219 12.828125 22.34375 12.828125 22.117188 12.828125 21.929688 12.640625 21.929688 12.414062 21.929688 12.183594 22.117188 12 22.34375 12 22.574219 12 22.757812 12.183594 22.757812 12.414062zM21.101562 14.070312C21.101562 14.296875 20.917969 14.484375 20.691406 14.484375 20.460938 14.484375 20.277344 14.296875 20.277344 14.070312 20.277344 13.839844 20.460938 13.65625 20.691406 13.65625 20.917969 13.65625 21.101562 13.839844 21.101562 14.070312zM19.449219 15.722656C19.449219 15.953125 19.261719 16.136719 19.035156 16.136719 18.804688 16.136719 18.621094 15.953125 18.621094 15.722656 18.621094 15.496094 18.804688 15.308594 19.035156 15.308594 19.261719 15.308594 19.449219 15.496094 19.449219 15.722656zM21.101562 17.378906C21.101562 17.609375 20.917969 17.792969 20.691406 17.792969 20.460938 17.792969 20.277344 17.609375 20.277344 17.378906 20.277344 17.152344 20.460938 16.964844 20.691406 16.964844 20.917969 16.964844 21.101562 17.152344 21.101562 17.378906zM19.449219 19.035156C19.449219 19.261719 19.261719 19.449219 19.035156 19.449219 18.804688 19.449219 18.621094 19.261719 18.621094 19.035156 18.621094 18.804688 18.804688 18.621094 19.035156 18.621094 19.261719 18.621094 19.449219 18.804688 19.449219 19.035156zM19.449219 19.035156"/>
</svg>

<svg xmlns="http://www.w3.org/2000/svg" width="32" height="32" viewBox="0 0 24 24">
    <path d="M24 12C24 5.523 18.84.23 12.414.012V0H12C5.383 0 0 5.383 0 12s5.383 12 12 12h.414v-.012C18.84 23.77 24 18.477 24 12zM.844 11.434c0-.063.008-.121.011-.184.008-.125.016-.254.028-.379.008-.074.02-.144.027-.219.016-.113.027-.222.043-.332.012-.078.027-.156.043-.23a8.93 8.93 0 0 1 .055-.317c.015-.078.035-.152.054-.23.02-.102.043-.203.067-.305.023-.074.043-.152.066-.23l.082-.293c.024-.078.051-.152.078-.227l.094-.285c.031-.078.059-.152.09-.226.035-.094.07-.188.11-.278.03-.074.062-.148.097-.222.04-.09.078-.18.121-.27.035-.07.07-.144.11-.215.042-.086.085-.176.132-.262l.118-.21c.046-.086.097-.172.148-.254.039-.07.082-.137.125-.204.05-.082.105-.164.16-.246.043-.07.09-.132.137-.199a5.205 5.205 0 0 1 .316-.43l.176-.23c.05-.062.106-.121.156-.184.063-.074.125-.148.192-.218.05-.059.105-.117.16-.176.066-.07.133-.14.203-.211.055-.059.113-.113.172-.168.066-.07.137-.137.207-.203.058-.055.121-.106.18-.16.074-.063.144-.13.218-.188.063-.054.125-.105.192-.156a4.89 4.89 0 0 1 .222-.176c.067-.05.133-.101.2-.148.074-.055.152-.11.23-.164.07-.047.137-.094.207-.14.078-.052.156-.103.238-.153l.215-.13c.078-.046.16-.097.246-.14.07-.043.145-.082.22-.12.081-.044.167-.087.253-.13.074-.039.148-.074.227-.113.085-.04.171-.078.257-.113.078-.036.157-.07.235-.102l.261-.105a4.43 4.43 0 0 0 .243-.09c.09-.032.18-.059.27-.09A5.97 5.97 0 0 1 8.78 1.3c.09-.028.184-.051.274-.078.082-.024.168-.047.254-.067.093-.023.183-.043.273-.062l.266-.059.273-.047c.09-.015.18-.031.27-.043.093-.015.187-.027.28-.035.09-.012.18-.023.274-.031.094-.012.188-.016.282-.024.093-.003.187-.011.28-.015.028-.004.052-.004.079-.004V23.16h-.078c-.094-.008-.188-.012-.281-.02-.094-.007-.188-.011-.282-.019-.093-.012-.183-.023-.273-.031l-.281-.035a6.437 6.437 0 0 0-.27-.043c-.09-.02-.184-.035-.273-.051l-.266-.059c-.09-.02-.184-.039-.273-.062a4.817 4.817 0 0 1-.254-.067 7.178 7.178 0 0 1-.274-.078c-.082-.023-.164-.05-.246-.078-.09-.027-.18-.058-.27-.09-.078-.03-.16-.058-.242-.09l-.261-.105c-.078-.031-.157-.066-.235-.098l-.257-.117c-.075-.035-.153-.074-.227-.11a5.192 5.192 0 0 1-.254-.132l-.219-.117a3.707 3.707 0 0 1-.246-.145c-.074-.039-.144-.086-.215-.129l-.238-.152-.207-.137c-.078-.054-.156-.11-.23-.168-.067-.047-.133-.097-.2-.144-.074-.059-.152-.117-.222-.18-.067-.05-.13-.101-.192-.152a9.583 9.583 0 0 1-.218-.192 6.625 6.625 0 0 1-.18-.16c-.07-.066-.14-.133-.207-.199-.059-.059-.117-.113-.172-.172-.07-.066-.137-.137-.203-.207a3.502 3.502 0 0 1-.16-.18c-.067-.07-.13-.144-.192-.218-.05-.063-.105-.121-.156-.184-.059-.074-.117-.152-.176-.227a6.338 6.338 0 0 1-.316-.43c-.047-.066-.094-.128-.137-.198a5.318 5.318 0 0 1-.16-.247c-.043-.066-.086-.132-.125-.203a5.397 5.397 0 0 1-.148-.254l-.118-.21a5.469 5.469 0 0 1-.132-.262c-.04-.07-.075-.145-.11-.215-.043-.09-.082-.18-.12-.27-.036-.074-.067-.148-.099-.222-.039-.09-.074-.184-.109-.278-.031-.074-.062-.148-.09-.226l-.094-.285c-.027-.075-.054-.149-.078-.227l-.082-.293c-.023-.078-.043-.156-.066-.23-.024-.102-.047-.203-.067-.305-.02-.078-.039-.152-.054-.23a8.93 8.93 0 0 1-.055-.317 4.022 4.022 0 0 1-.043-.23c-.015-.11-.027-.22-.043-.332-.008-.075-.02-.145-.027-.22-.012-.124-.02-.253-.028-.378-.003-.063-.011-.121-.011-.184A9.054 9.054 0 0 1 .828 12c0-.191.004-.379.016-.566zm15.289 10.945c0-.012.004-.024.004-.035a.414.414 0 0 0-.828 0c0 .113.046.215.12.289a11.02 11.02 0 0 1-3.015.527v-.402a.414.414 0 0 0 0-.828v-2.48a.414.414 0 0 0 0-.828v-2.485a.414.414 0 0 0 0-.828v-2.48a.414.414 0 0 0 0-.828V9.515a.414.414 0 0 0 .414-.414.413.413 0 0 0-.414-.41V6.206a.414.414 0 0 0 0-.828v-2.48a.414.414 0 0 0 0-.828V.84c.43.015.852.05 1.266.113.054.168.207.29.39.29a.396.396 0 0 0 .313-.157c5.02 1.098 8.789 5.57 8.789 10.914 0 1.195-.192 2.348-.54 3.43a.407.407 0 0 0-.288-.121.414.414 0 0 0 0 .828c.011 0 .023-.004.035-.004a11.25 11.25 0 0 1-6.246 6.246zm0 0"/>
    <path d="M14.484 4.137a.414.414 0 1 1-.828 0 .414.414 0 0 1 .828 0zm0 0M17.793 4.137a.414.414 0 1 1-.828 0 .414.414 0 0 1 .828 0zm0 0M16.137 5.793a.414.414 0 1 1-.828 0 .414.414 0 0 1 .828 0zm0 0M16.137 2.484a.414.414 0 1 1-.829 0 .414.414 0 0 1 .829 0zm0 0M14.484 7.45a.414.414 0 1 1-.828 0 .414.414 0 0 1 .828 0zm0 0M17.793 7.45a.414.414 0 1 1-.829-.001.414.414 0 0 1 .829 0zm0 0M16.137 9.102a.414.414 0 0 1-.828 0c0-.227.187-.41.414-.41.23 0 .414.183.414.41zm0 0M14.484 10.758a.414.414 0 1 1-.828 0 .414.414 0 0 1 .828 0zm0 0M17.793 10.758a.414.414 0 1 1-.828 0 .414.414 0 0 1 .828 0zm0 0M16.137 12.414a.414.414 0 1 1-.829 0 .414.414 0 0 1 .829 0zm0 0M14.484 14.07a.414.414 0 1 1-.828 0 .414.414 0 0 1 .828 0zm0 0M17.793 14.07a.414.414 0 1 1-.829 0 .414.414 0 0 1 .829 0zm0 0M16.137 15.723a.414.414 0 1 1-.828 0 .414.414 0 0 1 .828 0zm0 0M14.484 17.379a.414.414 0 1 1-.828 0 .414.414 0 0 1 .828 0zm0 0M17.793 17.379a.414.414 0 1 1-.828 0 .414.414 0 0 1 .828 0zm0 0M16.137 19.035a.414.414 0 1 1-.829 0 .414.414 0 0 1 .829 0zm0 0M14.484 20.691c0 .227-.187.41-.414.41a.412.412 0 1 1 0-.824c.227 0 .414.184.414.414zm0 0M17.793 20.691c0 .227-.184.41-.414.41a.413.413 0 0 1-.414-.41.414.414 0 0 1 .828 0zm0 0M19.45 5.793a.414.414 0 1 1-.83 0 .414.414 0 0 1 .83 0zm0 0M21.102 7.45a.413.413 0 0 1-.41.413.414.414 0 0 1 0-.828c.226 0 .41.184.41.414zm0 0M19.45 9.102a.414.414 0 0 1-.829 0c0-.227.184-.41.414-.41.227 0 .414.183.414.41zm0 0M22.758 9.102a.414.414 0 0 1-.828 0c0-.227.187-.41.414-.41.23 0 .414.183.414.41zm0 0M21.102 10.758a.412.412 0 1 1-.824 0c0-.227.183-.414.413-.414.227 0 .41.187.41.414zm0 0M19.45 12.414a.414.414 0 1 1-.828 0 .414.414 0 0 1 .827 0zm0 0M22.758 12.414a.414.414 0 1 1-.829 0 .414.414 0 0 1 .829 0zm0 0M21.102 14.07a.413.413 0 0 1-.41.414.414.414 0 0 1 0-.828c.226 0 .41.184.41.414zm0 0M19.45 15.723a.414.414 0 1 1-.83 0 .414.414 0 0 1 .83 0zm0 0M21.102 17.379a.412.412 0 1 1-.824 0c0-.227.183-.414.413-.414.227 0 .41.187.41.414zm0 0M19.45 19.035a.414.414 0 1 1-.828 0 .414.414 0 0 1 .827 0zm0 0"/>
</svg>
